X:1
T:Bellman's Jig
M:6/8
R:jig
K:G
D| "G"GDG BGB| d2c B2A| GDG A2B| "D7"c2B A2D|
"G"GDG BGB| "Em"d2c BcB| "Am"ABc "D7"DEF| "G"GGG G2:|
|:d| "D7"cAA A2f| "G"gdd d2d| "D7"cAA A2f| "G"gdd d2d |
"D7"cdc "G"BcB| "D7"ABA "G"GAG|"Am" FGA "D7"DEF| "G"GGG G2:|
